X: 107
T: No_195_Drunken_Dance_Song_(c).krn
N: Derived from No_195_Drunken_Dance_Song_(c).krn
%%abc-version 2.0
%%abcx-abcm2ps-target-version 5.9.1 (29 Sep 2008)
%%abc-creator hum2abc beta
%%abcx-conversion-date 2019/03/15 08:38:45
%%humdrum-veritas 2738763150
%%humdrum-veritas-data 1400425969
%%linebreak <none>
%%barnumbers 0
L: 1/16
M: 3/4
K: F clef=bass
[K:clef=bass][M:3/4]F,F,(F,G,)F,4D,4 | 
F,F,(G,3/F,/)D,4C,4 | 
F,F,(F,G,)F,4D,4 | 
F,F,(G,3/F,/)D,4C,4 | 
F,F,F,2G,4F,4 | 
F,F,G,2G,4F,4 | 
A,A,A,2A,4D,4 | 
F,F,G,3/F,/D,4C,4 | 
F,F,(F,G,)F,4D,4 | 
F,F,(G,3/F,/)D,4C,4 |]  



